X: 1
T:Nicodemus Johnson's
M:2/4
L:1/16
R:reel
B:Ryan's Mammoth Collection
N:270
Z:Contributed by Ray Davies,  ray:davies99.freeserve.co.uk
K:G
G,G,G2 G,G,G2 | FGAG FDEF | GFGE DGBe | dcAF GEDB, |
G,G,G2 G,G,G2 | FGAG FDEF | GFGE DGBe | dBGB cdef |]
g3f e2f2 | .g2((3fga) g2B2 | g3f e2f2 | g3f gab2 |
g3f e3f | g2f2g2a2 | b2 BB B2B2 | B4 z2 Ac | BGAF GEDB,|]
